X: 15
T: Tam Lin
R: reel
M: 4/4
L: 1/8
K: Amin
|:EAcA EAcA| FAcA dAcA| GBdB GBdB|cBAG ABAG|
|EAcA EAcA| FAcA dAcA| GBdB GBdB|[1 cBAG A3 G:|] [2|cBAG A3 e|]
|a^gae ceAe| a^gae ceAe| gBBB gBaB| gBBB e^fge|
a^gae ceAe| a^gae ceAc| FAcA GBdB|[1 cBAG A3 e:|][2| cBAG A3 G:|]


Tune 248	Setting 12959

